svg/m/WF.svg

<svg fill="none" height="15" viewBox="0 0 20 15" width="20" xmlns="http://www.w3.org/2000/svg" xmlns:xlink="http://www.w3.org/1999/xlink"><mask id="a" height="15" maskUnits="userSpaceOnUse" width="20" x="0" y="0"><path d="m0 0h20v15h-20z" fill="#fff"/></mask><g clip-rule="evenodd" fill-rule="evenodd" mask="url(#a)"><path d="m13.75 0h6.25v15h-6.25z" fill="#c51918"/><path d="m0 0h7.5v15h-7.5z" fill="#2e42a5"/><path d="m6.25 0h7.5v15h-7.5z" fill="#f7fcff"/></g></svg>

<svg width="20" height="15" viewBox="0 0 20 15" fill="none" xmlns="http://www.w3.org/2000/svg">
<mask id="mask0" mask-type="alpha" maskUnits="userSpaceOnUse" x="0" y="0" width="20" height="15">
<rect width="20" height="15" fill="white"/>
</mask>
<g mask="url(#mask0)">
<path fill-rule="evenodd" clip-rule="evenodd" d="M13.75 0H20V15H13.75V0Z" fill="#C51918"/>
<path fill-rule="evenodd" clip-rule="evenodd" d="M0 0H7.5V15H0V0Z" fill="#2E42A5"/>
<path fill-rule="evenodd" clip-rule="evenodd" d="M6.25 0H13.75V15H6.25V0Z" fill="#F7FCFF"/>
</g>
</svg>
